src/assets/outline/Backward10Seconds.svg

<?xml version="1.0" encoding="UTF-8"?>
<svg width="24" height="24" viewBox="0 0 24 24" xmlns="http://www.w3.org/2000/svg">
 <path d="m9.54 16.67c-0.41 0-0.75-0.34-0.75-0.75v-3.39l-0.19001 0.21c-0.28 0.31-0.74999 0.33-1.06 0.06-0.31-0.28-0.33-0.75-0.06-1.06l1.5-1.67c0.21-0.23002 0.53999-0.31003 0.82999-0.20003 0.28997 0.11 0.47997 0.39003 0.47997 0.70003v5.35c0 0.42-0.32996 0.75-0.74996 0.75z"/>
 <path d="m10.02 5.2199c-0.17003 0-0.33003-0.04998-0.47003-0.16998-0.32-0.26-0.36999-0.72999-0.11999-1.05l1.98-2.47c0.26-0.32 0.73-0.37006 1.05-0.12006s0.37 0.73005 0.12 1.05l-1.98 2.47c-0.14 0.19-0.36 0.28998-0.58 0.28998z"/>
 <path d="m12 22.75c-5.31 0-9.64-4.32-9.64-9.64 0-2.07 0.67002-4.06 1.95-5.76 0.25-0.33 0.71998-0.39997 1.05-0.14997s0.40003 0.71999 0.15003 1.05c-1.08 1.44-1.65 3.12-1.65 4.86 0 4.49 3.65 8.14 8.14 8.14 4.49 0 8.14-3.65 8.14-8.14 0-4.49-3.65-8.14-8.14-8.14-0.58 0-1.17 0.07003-1.81 0.22003-0.40002 0.09-0.81001-0.16-0.90001-0.56s0.15999-0.81002 0.55999-0.90002c0.75002-0.17 1.46-0.26001 2.15-0.26001 5.31 0 9.64 4.32 9.64 9.64 0 5.32-4.33 9.64-9.64 9.64z"/>
 <path d="m14 16.67c-1.52 0-2.75-1.23-2.75-2.75v-1.3499c0-1.52 1.23-2.75 2.75-2.75s2.75 1.23 2.75 2.75v1.3499c0 1.52-1.23 2.75-2.75 2.75zm0-5.3399c-0.69 0-1.25 0.56-1.25 1.25v1.35c0 0.69 0.56 1.25 1.25 1.25s1.25-0.56 1.25-1.25v-1.35c0-0.69-0.56-1.25-1.25-1.25z"/>
</svg>

<svg width="24" height="24" viewBox="0 0 24 24"  xmlns="http://www.w3.org/2000/svg">
<path d="M9.54004 16.6701C9.13004 16.6701 8.79004 16.3301 8.79004 15.9201V12.5301L8.60003 12.7401C8.32003 13.0501 7.85004 13.0701 7.54004 12.8001C7.23004 12.5201 7.21004 12.0501 7.48004 11.7401L8.98004 10.0701C9.19004 9.84008 9.52003 9.76007 9.81003 9.87007C10.1 9.98007 10.29 10.2601 10.29 10.5701V15.9201C10.29 16.3401 9.96004 16.6701 9.54004 16.6701Z" />
<path d="M10.02 5.21993C9.84997 5.21993 9.68997 5.16995 9.54997 5.04995C9.22997 4.78995 9.17998 4.31996 9.42998 3.99996L11.41 1.52999C11.67 1.20999 12.14 1.15993 12.46 1.40993C12.78 1.65993 12.83 2.13998 12.58 2.45998L10.6 4.92995C10.46 5.11995 10.24 5.21993 10.02 5.21993Z" />
<path d="M11.9999 22.75C6.68988 22.75 2.35986 18.43 2.35986 13.11C2.35986 11.04 3.02988 9.04998 4.30988 7.34998C4.55988 7.01998 5.02986 6.95001 5.35986 7.20001C5.68986 7.45001 5.75989 7.92 5.50989 8.25C4.42989 9.69 3.85986 11.37 3.85986 13.11C3.85986 17.6 7.50988 21.25 11.9999 21.25C16.4899 21.25 20.1399 17.6 20.1399 13.11C20.1399 8.61999 16.4899 4.96997 11.9999 4.96997C11.4199 4.96997 10.8299 5.04 10.1899 5.19C9.78988 5.28 9.37989 5.03 9.28989 4.63C9.19989 4.23 9.44988 3.81998 9.84988 3.72998C10.5999 3.55998 11.3099 3.46997 11.9999 3.46997C17.3099 3.46997 21.6399 7.78999 21.6399 13.11C21.6399 18.43 17.3099 22.75 11.9999 22.75Z" />
<path d="M14 16.67C12.48 16.67 11.25 15.44 11.25 13.92V12.5701C11.25 11.0501 12.48 9.82007 14 9.82007C15.52 9.82007 16.75 11.0501 16.75 12.5701V13.92C16.75 15.44 15.52 16.67 14 16.67ZM14 11.3301C13.31 11.3301 12.75 11.8901 12.75 12.5801V13.9301C12.75 14.6201 13.31 15.1801 14 15.1801C14.69 15.1801 15.25 14.6201 15.25 13.9301V12.5801C15.25 11.8901 14.69 11.3301 14 11.3301Z" />
</svg>
